img/what-is-beaker.svg

<?xml version="1.0" encoding="UTF-8"?>
<svg width="615px" height="370px" viewBox="0 0 615 370" version="1.1" xmlns="http://www.w3.org/2000/svg" xmlns:xlink="http://www.w3.org/1999/xlink">
    <!-- Generator: Sketch 49.1 (51147) - http://www.bohemiancoding.com/sketch -->
    <title>what</title>
    <desc>Created with Sketch.</desc>
    <defs>
        <rect id="path-1" x="0" y="0" width="121" height="83" rx="6"></rect>
        <filter x="-2.5%" y="-3.6%" width="109.9%" height="114.5%" filterUnits="objectBoundingBox" id="filter-2">
            <feOffset dx="6" dy="6" in="SourceAlpha" result="shadowOffsetOuter1"></feOffset>
            <feComposite in="shadowOffsetOuter1" in2="SourceAlpha" operator="out" result="shadowOffsetOuter1"></feComposite>
            <feColorMatrix values="0 0 0 0 0.211764706   0 0 0 0 0.839215686   0 0 0 0 0.588235294  0 0 0 0.5 0" type="matrix" in="shadowOffsetOuter1"></feColorMatrix>
        </filter>
        <rect id="path-3" x="531.572077" y="138.572077" width="10" height="10" rx="2"></rect>
        <rect id="path-4" x="0" y="0" width="84.7797927" height="57" rx="4"></rect>
        <filter x="-3.5%" y="-5.3%" width="114.2%" height="121.1%" filterUnits="objectBoundingBox" id="filter-5">
            <feOffset dx="6" dy="6" in="SourceAlpha" result="shadowOffsetOuter1"></feOffset>
            <feComposite in="shadowOffsetOuter1" in2="SourceAlpha" operator="out" result="shadowOffsetOuter1"></feComposite>
            <feColorMatrix values="0 0 0 0 0.776470588   0 0 0 0 0.662745098   0 0 0 0 0.968627451  0 0 0 1 0" type="matrix" in="shadowOffsetOuter1"></feColorMatrix>
        </filter>
        <rect id="path-6" x="0" y="0" width="96" height="114" rx="2"></rect>
        <filter x="-3.1%" y="-2.6%" width="112.5%" height="110.5%" filterUnits="objectBoundingBox" id="filter-7">
            <feOffset dx="6" dy="6" in="SourceAlpha" result="shadowOffsetOuter1"></feOffset>
            <feComposite in="shadowOffsetOuter1" in2="SourceAlpha" operator="out" result="shadowOffsetOuter1"></feComposite>
            <feColorMatrix values="0 0 0 0 0.258823529   0 0 0 0 0.392156863   0 0 0 0 0.984313725  0 0 0 0.5 0" type="matrix" in="shadowOffsetOuter1"></feColorMatrix>
        </filter>
    </defs>
    <g id="Page-1" stroke="none" stroke-width="1" fill="none" fill-rule="evenodd">
        <g id="what" transform="translate(4.000000, 0.000000)">
            <path d="M578.989339,116.228285 C521.802745,83.5199867 424.685513,62 314.5,62 C183.606632,62 71.1551265,92.3688457 22.1777206,135.786446" id="Oval-6-Copy" stroke="" stroke-width="6" stroke-linecap="square" stroke-dasharray="12,27"></path>
            <g id="homepage-hero">
                <g id="browser">
                    <path d="M536,36 L536,319 C536,320.104569 535.104569,321 534,321 L89,321 L89,36" id="Rectangle-3" stroke="#EEEEEE" stroke-width="2" fill-opacity="0.9" fill="#FFFFFF"></path>
                    <path d="M98,0 L527,0 C532.522847,-1.01453063e-15 537,4.4771525 537,10 L537,37 L88,37 L88,10 C88,4.4771525 92.4771525,1.01453063e-15 98,0 Z" id="Rectangle-9" fill="#EEEEEE"></path>
                    <circle id="Oval" fill="#ED495D" cx="105.5" cy="18.5" r="5.5"></circle>
                    <circle id="Oval-Copy" fill="#FFD126" cx="121.5" cy="18.5" r="5.5"></circle>
                    <path d="M24.9448609,135.786446 C8.89652912,150.716132 0,167.188721 0,184.5 C0,252.154882 135.881578,307 303.5,307 C471.118422,307 607,252.154882 607,184.5 C607,159.224162 588.034101,135.736268 555.533012,116.228285" id="Oval-6" stroke="" stroke-width="6" opacity="0.3" stroke-linecap="square" stroke-dasharray="1"></path>
                    <circle id="Oval-Copy-3" fill="#36D696" cx="138.5" cy="18.5" r="5.5"></circle>
                    <rect id="Rectangle-10" fill="#FFFFFF" x="170" y="9" width="325" height="18" rx="9"></rect>
                    <path d="M122.829268,60 L292.170732,60 C293.181009,60 294,60.8189913 294,61.8292683 L294,181.170732 C294,182.181009 293.181009,183 292.170732,183 L122.829268,183 C121.818991,183 121,182.181009 121,181.170732 L121,61.8292683 C121,60.8189913 121.818991,60 122.829268,60 Z" id="back-copy" stroke="#DDDDDD" stroke-width="2.5" fill="#FFFFFF" stroke-linecap="round" stroke-linejoin="round" stroke-dasharray="2,10,2,10"></path>
                </g>
                <rect id="Rectangle-6" fill="#EEEEEE" x="114" y="287" width="198" height="10" rx="2"></rect>
                <rect id="Rectangle-6-Copy-3" fill="#EEEEEE" x="114" y="240" width="246" height="10" rx="2"></rect>
                <rect id="Rectangle-6-Copy-4" fill="#EEEEEE" x="114" y="217" width="246" height="10" rx="2"></rect>
                <rect id="Rectangle-6-Copy-2" fill="#EEEEEE" x="114" y="264" width="246" height="10" rx="2"></rect>
                <g id="video" transform="translate(520.686902, 116.516097) rotate(-5.000000) translate(-520.686902, -116.516097) translate(460.186902, 75.016097)">
                    <g id="Rectangle-14">
                        <use fill="black" fill-opacity="1" filter="url(#filter-2)" xlink:href="#path-1"></use>
                        <use fill="#EAFAF4" fill-rule="evenodd" xlink:href="#path-1"></use>
                        <rect stroke="#36D696" stroke-width="2" x="1" y="1" width="119" height="81" rx="6"></rect>
                    </g>
                    <circle id="Oval-4" fill="#36D696" cx="60" cy="37" r="15"></circle>
                    <path d="M62.5896179,31.0287867 L68.9092597,41.2605877 C69.1994814,41.7304705 69.0538373,42.3466569 68.5839545,42.6368786 C68.4260322,42.7344189 68.2440784,42.7860806 68.0584617,42.7860806 L55.4191781,42.7860806 C54.8668933,42.7860806 54.4191781,42.3383653 54.4191781,41.7860806 C54.4191781,41.6004638 54.4708398,41.4185101 54.5683801,41.2605877 L60.8880219,31.0287867 C61.1782436,30.5589039 61.79443,30.4132599 62.2643127,30.7034816 C62.396556,30.7851612 62.5079382,30.8965435 62.5896179,31.0287867 Z" id="Triangle" fill="#FFFFFF" transform="translate(61.738889, 36.670111) rotate(90.000000) translate(-61.738889, -36.670111) "></path>
                    <path d="M14.5,69.5 L68,69.5" id="Line" stroke="#36D696" stroke-width="4" stroke-linecap="square"></path>
                    <path d="M78,69.5 L106,69.5" id="Line-Copy" stroke="#9AEACA" stroke-width="4" stroke-linecap="square"></path>
                </g>
                <g id="Rectangle-13-Copy-7" transform="translate(536.572077, 143.572077) rotate(-7.000000) translate(-536.572077, -143.572077) ">
                    <use fill="#FFFFFF" fill-rule="evenodd" xlink:href="#path-3"></use>
                    <rect stroke="#36D696" stroke-width="1" x="532.072077" y="139.072077" width="9" height="9" rx="2"></rect>
                </g>
                <g id="image-copy" transform="translate(68.656488, 112.467012) rotate(3.000000) translate(-68.656488, -112.467012) translate(26.156488, 83.967012)">
                    <g id="Rectangle">
                        <use fill="black" fill-opacity="1" filter="url(#filter-5)" xlink:href="#path-4"></use>
                        <use fill="#F2EBFD" fill-rule="evenodd" xlink:href="#path-4"></use>
                        <rect stroke="#8D54F0" stroke-width="2" x="1" y="1" width="82.7797927" height="55" rx="4"></rect>
                    </g>
                    <ellipse id="Oval-2" fill="#8D54F0" cx="36.4054404" cy="18.5" rx="7.48056995" ry="7.5"></ellipse>
                    <path d="M79.3830301,56.5507813 L5.36364556,56.5507813 C3.15450656,56.5507813 1.36364556,54.7599203 1.36364556,52.5507813 L1.36364556,40.9121094 L13.5410188,29.0967591 C15.5228758,27.1738203 18.6883383,27.2215829 20.6112771,29.2034399 C20.6974939,29.2922983 20.7803804,29.3843284 20.8597653,29.47934 C29.2668146,39.5412904 34.5052002,44.5722656 36.5749221,44.5722656 C38.7219776,44.5722656 46.5866709,35.6000804 60.169002,17.65571 L60.1689993,17.655708 C61.8355804,15.4538954 64.9715331,15.0200045 67.1733457,16.6865855 C67.4657704,16.9079257 67.7329549,17.1607674 67.970077,17.4405473 L83.3830301,35.6262654 L83.3830301,52.5507813 C83.3830301,54.7599203 81.5921691,56.5507813 79.3830301,56.5507813 Z" id="Path-2" fill="#8D54F0"></path>
                </g>
                <g id="webpage" transform="translate(183.695173, 301.705114) rotate(5.000000) translate(-183.695173, -301.705114) translate(135.695173, 244.705114)">
                    <g id="page">
                        <use fill="black" fill-opacity="1" filter="url(#filter-7)" xlink:href="#path-6"></use>
                        <use fill="#FFFFFF" fill-rule="evenodd" xlink:href="#path-6"></use>
                        <rect stroke="#4264FB" stroke-width="2" x="1" y="1" width="94" height="112" rx="2"></rect>
                    </g>
                    <path d="M50,14 L81,14 C82.1045695,14 83,14.8954305 83,16 L83,54 C83,55.1045695 82.1045695,56 81,56 L50,56 C48.8954305,56 48,55.1045695 48,54 L48,16 C48,14.8954305 48.8954305,14 50,14 Z" id="Rectangle-11-Copy" stroke="#C6D0FD" stroke-width="1.5" stroke-linecap="round" stroke-linejoin="round" stroke-dasharray="2,5,2,5"></path>
                    <rect id="Rectangle-15-Copy" fill-opacity="0.3" fill="#4264FB" x="12" y="69" width="70" height="4" rx="1"></rect>
                    <rect id="Rectangle-15-Copy-5" fill-opacity="0.7" fill="#4264FB" x="13" y="43" width="25" height="4" rx="1"></rect>
                    <rect id="Rectangle-15-Copy-7" fill-opacity="0.7" fill="#4264FB" x="13" y="52" width="25" height="4" rx="1"></rect>
                    <rect id="Rectangle-15-Copy-2" fill-opacity="0.3" fill="#4264FB" x="12" y="78" width="70" height="4" rx="1"></rect>
                    <rect id="Rectangle-15-Copy-3" fill-opacity="0.3" fill="#4264FB" x="12" y="87" width="70" height="4" rx="1"></rect>
                    <rect id="Rectangle-15-Copy-4" fill-opacity="0.3" fill="#4264FB" x="12" y="96" width="47" height="4" rx="1"></rect>
                    <path d="M23.7181325,18.0171666 L29.108296,27.0972479 C29.6721338,28.0470694 29.3592322,29.2741326 28.4094108,29.8379704 C28.1004508,30.0213767 27.7477889,30.1181665 27.3884922,30.1181665 L16.6081652,30.1181665 C15.5035957,30.1181665 14.6081652,29.222736 14.6081652,28.1181665 C14.6081652,27.7588698 14.704955,27.4062079 14.8883613,27.0972479 L20.2785248,18.0171666 C20.8423626,17.0673451 22.0694258,16.7544436 23.0192473,17.3182813 C23.3070101,17.4891045 23.5473093,17.7294038 23.7181325,18.0171666 Z" id="Triangle-2" fill="#4264FB"></path>
                </g>
            </g>
        </g>
    </g>
</svg>

<svg width="615" height="370" xmlns="http://www.w3.org/2000/svg" xmlns:xlink="http://www.w3.org/1999/xlink"><defs><rect id="b" width="121" height="83" rx="6"/><filter x="-2.5%" y="-3.6%" width="109.9%" height="114.5%" filterUnits="objectBoundingBox" id="a"><feOffset dx="6" dy="6" in="SourceAlpha" result="shadowOffsetOuter1"/><feComposite in="shadowOffsetOuter1" in2="SourceAlpha" operator="out" result="shadowOffsetOuter1"/><feColorMatrix values="0 0 0 0 0.211764706 0 0 0 0 0.839215686 0 0 0 0 0.588235294 0 0 0 0.5 0" in="shadowOffsetOuter1"/></filter><rect id="c" x="531.572" y="138.572" width="10" height="10" rx="2"/><rect id="e" width="84.78" height="57" rx="4"/><filter x="-3.5%" y="-5.3%" width="114.2%" height="121.1%" filterUnits="objectBoundingBox" id="d"><feOffset dx="6" dy="6" in="SourceAlpha" result="shadowOffsetOuter1"/><feComposite in="shadowOffsetOuter1" in2="SourceAlpha" operator="out" result="shadowOffsetOuter1"/><feColorMatrix values="0 0 0 0 0.776470588 0 0 0 0 0.662745098 0 0 0 0 0.968627451 0 0 0 1 0" in="shadowOffsetOuter1"/></filter><rect id="g" width="96" height="114" rx="2"/><filter x="-3.1%" y="-2.6%" width="112.5%" height="110.5%" filterUnits="objectBoundingBox" id="f"><feOffset dx="6" dy="6" in="SourceAlpha" result="shadowOffsetOuter1"/><feComposite in="shadowOffsetOuter1" in2="SourceAlpha" operator="out" result="shadowOffsetOuter1"/><feColorMatrix values="0 0 0 0 0.258823529 0 0 0 0 0.392156863 0 0 0 0 0.984313725 0 0 0 0.5 0" in="shadowOffsetOuter1"/></filter></defs><g fill="none" fill-rule="evenodd"><path d="M582.99 116.228C525.802 83.52 428.685 62 318.5 62 187.607 62 75.155 92.369 26.178 135.786"/><g transform="translate(4)"><path d="M536 36v283a2 2 0 0 1-2 2H89V36" stroke="#EEE" stroke-width="2" fill-opacity=".9" fill="#FFF"/><path d="M98 0h429c5.523 0 10 4.477 10 10v27H88V10c0-5.523 4.477-10 10-10z" fill="#EEE"/><circle fill="#ED495D" cx="105.5" cy="18.5" r="5.5"/><circle fill="#FFD126" cx="121.5" cy="18.5" r="5.5"/><path d="M24.945 135.786C8.897 150.716 0 167.19 0 184.5 0 252.155 135.882 307 303.5 307S607 252.155 607 184.5c0-25.276-18.966-48.764-51.467-68.272" opacity=".3"/><circle fill="#36D696" cx="138.5" cy="18.5" r="5.5"/><rect fill="#FFF" x="170" y="9" width="325" height="18" rx="9"/><path d="M122.83 60h169.34c1.011 0 1.83.819 1.83 1.83v119.34a1.83 1.83 0 0 1-1.83 1.83H122.83a1.83 1.83 0 0 1-1.83-1.83V61.83c0-1.011.819-1.83 1.83-1.83z" stroke="#DDD" stroke-width="2.5" fill="#FFF" stroke-linecap="round" stroke-linejoin="round" stroke-dasharray="2,10,2,10"/><rect fill="#EEE" x="114" y="287" width="198" height="10" rx="2"/><rect fill="#EEE" x="114" y="240" width="246" height="10" rx="2"/><rect fill="#EEE" x="114" y="217" width="246" height="10" rx="2"/><rect fill="#EEE" x="114" y="264" width="246" height="10" rx="2"/><g transform="rotate(-5 1149.669 -5190.998)"><use fill="#000" filter="url(#a)" xlink:href="#b"/><use fill="#EAFAF4" xlink:href="#b"/><rect stroke="#36D696" stroke-width="2" x="1" y="1" width="119" height="81" rx="6"/><circle fill="#36D696" cx="60" cy="37" r="15"/><path d="M67.38 37.52l-10.232 6.32a1 1 0 0 1-1.525-.85V30.35a1 1 0 0 1 1.525-.85l10.232 6.32a1 1 0 0 1 0 1.7z" fill="#FFF"/><path d="M14.5 69.5H68" stroke="#36D696" stroke-width="4" stroke-linecap="square"/><path d="M78 69.5h28" stroke="#9AEACA" stroke-width="4" stroke-linecap="square"/></g><g transform="rotate(-7 536.572 143.572)"><use fill="#FFF" xlink:href="#c"/><rect stroke="#36D696" x="532.072" y="139.072" width="9" height="9" rx="2"/></g><g transform="rotate(3 -1547.707 569.921)"><use fill="#000" filter="url(#d)" xlink:href="#e"/><use fill="#F2EBFD" xlink:href="#e"/><rect stroke="#8D54F0" stroke-width="2" x="1" y="1" width="82.78" height="55" rx="4"/><ellipse fill="#8D54F0" cx="36.405" cy="18.5" rx="7.481" ry="7.5"/><path d="M79.383 56.55H5.363a4 4 0 0 1-4-4V40.913l12.178-11.815a5 5 0 0 1 7.319.382c8.407 10.062 13.645 15.093 15.715 15.093 2.147 0 10.012-8.972 23.594-26.916a5 5 0 0 1 7.801-.215l15.413 18.185v16.925a4 4 0 0 1-4 4z" fill="#8D54F0"/></g><g transform="rotate(5 -2686.487 1733.318)"><use fill="#000" filter="url(#f)" xlink:href="#g"/><use fill="#FFF" xlink:href="#g"/><rect stroke="#4264FB" stroke-width="2" x="1" y="1" width="94" height="112" rx="2"/><path d="M50 14h31a2 2 0 0 1 2 2v38a2 2 0 0 1-2 2H50a2 2 0 0 1-2-2V16a2 2 0 0 1 2-2z" stroke="#C6D0FD" stroke-width="1.5" stroke-linecap="round" stroke-linejoin="round" stroke-dasharray="2,5,2,5"/><rect fill-opacity=".3" fill="#4264FB" x="12" y="69" width="70" height="4" rx="1"/><rect fill-opacity=".7" fill="#4264FB" x="13" y="43" width="25" height="4" rx="1"/><rect fill-opacity=".7" fill="#4264FB" x="13" y="52" width="25" height="4" rx="1"/><rect fill-opacity=".3" fill="#4264FB" x="12" y="78" width="70" height="4" rx="1"/><rect fill-opacity=".3" fill="#4264FB" x="12" y="87" width="70" height="4" rx="1"/><rect fill-opacity=".3" fill="#4264FB" x="12" y="96" width="47" height="4" rx="1"/><path d="M23.718 18.017l5.39 9.08a2 2 0 0 1-1.72 3.021h-10.78a2 2 0 0 1-1.72-3.02l5.39-9.08a2 2 0 0 1 3.44 0z" fill="#4264FB"/></g></g></g></svg>
